X:1
T: Doreen Lambert
C:
R:Strathspey
Q: 128
K:G
M:4/4
L:1/16
|:G3A Bd3 D3G Bd3|c3A BAG2 FA3 A3B|G3A Bd3 D3G Bd3|e3c d3c BG3 G4|
G3A Bd3 D3G Bd3|c3A BAG2 FA3 A3B|G3A Bd3 D3G Bd3|e3c d3c BG3 G3d|
b3a g3b a3f d3f|g3f e3g f3^d B4|e3d c3e d3B g3B|c3A BAG2 FA3 A3d|
b3a gab2 a3f d3f|g3f efg2 f3^d B4|c3d edc2 Bd3 g3d|e3c d3c BG3 G4:|
